X: 40688
T: Torn Curtain, The
R: reel
M: 4/4
K: Adorian
ABAG E2AB|ABGA BAAB|ABAG Eeeg|fade fee/e/e|
ABAG E2AB|ABGA BAag|fedf g2GA|1 Beed BAAG:|2 Beed BAA2||
abag e2ab|ageg baba|gedg B2BA|Ggga bage|
abag eeeg|edBd g2ag|fedf g2GA|1 Beed BAA2:|2 Beed BAAG||

